X: 1
T:Maoris Farewell  "rpband"
M:C
L:1/8
Q:80
C:
S:Slow Air
K:HP
|: {g}f2{Gdc}d3/2e/2{g}f2-f{e}f|
{g}f3/2e/2{gf}g3/2c/2{Gdc}d2-d2|
{g}d2{g}e3/2f/2{g}f2{Gdc}d2|  !
{g}e3/2d/2{g}c3/2d/2{g}e2-e2|] [|
{g}f2{Gdc}d3/2e/2{g}f2-f{e}f|
{g}f3/2e/2{gf}g3/2c/2{Gdc}d2-d2|  !
{g}d2{g}e3/2f/2{g}f3/2d/2{gf}g3/2f/2|
{g}B2{g}c2{Gdc}d2-d2:|
